icons/general-icon-filled.svg

<svg viewBox="0 0 20 20"><path fill="currentColor" fill-rule="evenodd" d="M4 19.6a3.6 3.6 0 0 1-3.6-3.6v-12a3.6 3.6 0 0 1 3.6-3.6h12a3.6 3.6 0 0 1 3.6 3.6v12a3.6 3.6 0 0 1-3.6 3.6zm5-3.6a1 1 0 1 0 2 0v-6l2 2a1 1 0 0 0 1.4-1.5l-3.7-3.5a1 1 0 0 0-1.4 0l-3.7 3.5a1 1 0 0 0 1.4 1.5l2-2zm6.3-10.8a1 1 0 0 0 1.4-1.4 3 3 0 0 0-1.8-.8h-9.8q-1 0-1.8.8a1 1 0 1 0 1.4 1.4 1 1 0 0 1 .4-.2h9.8q.2 0 .4.2Z" clip-rule="evenodd"/></svg>

<svg viewBox="0 0 20 20"><path fill="currentColor" fill-rule="evenodd" d="M4 19.6A3.6 3.6 0 0 1 .4 16V4A3.6 3.6 0 0 1 4 .4h12A3.6 3.6 0 0 1 19.6 4v12a3.6 3.6 0 0 1-3.6 3.6zM9 16a1 1 0 1 0 2 0v-6l2 2a1 1 0 0 0 1.4-1.5L10.7 7a1 1 0 0 0-1.4 0l-3.7 3.5A1 1 0 0 0 7 12l2-2zm6.3-10.8a1 1 0 0 0 1.4-1.4A3 3 0 0 0 15 3H5q-1 0-1.8.8a1 1 0 1 0 1.4 1.4L5 5h10z" clip-rule="evenodd"/></svg>
